X:1
T:Mrs. C. H. Morris
T:Mrs. C. H. M.
T:"Just a Little Longer"
%%score { ( 1 2 ) | ( 3 4 ) }
L:1/8
M:4/4
K:G
V:1 treble 
V:2 treble 
V:3 bass 
V:4 bass 
V:1
{/x} B>^AB>A B2 =A>E | D2 G2 G2 F2 | c>Bc>B c2 F2 | E2 D2 D4 | G>GG>A B2 G>D | E2 G2 c2 B2 | %6
w: Just a lit\- tle long\- er to|work for Je\- sus,|Days for earth\- ly toil are|short and few;|Just a lit\- tle long\- er to|fight life's bat\- tles,|
w: Just a lit\- tle long\- er the|seed to scat\- ter|Out up\- on the har\- vest\-|fields so wide;|Just a lit\- tle long\- er the|sheaves to gath\- er,|
w: Just a lit\- tle long\- er to|lift the fall\- en,|Pre\- cious, nev\- er\- dy\- ing|souls to save;|Just a lit\- tle long\- er to|tell the sto\- ry,|
 A>AA>A d>dA>G | F2 E2 D4 |"^Chorus" d>^cd>e d2 B2 | B>^AB>c B2 G2 | D>DG>A B>Bd>B | A2 A2 A4 | %12
w: And to prove thy\- self a sol\- dier|brave and true.|Just a lit\- tle long\- er,|just a lit\- tle long\- er,|O my soul be pa\- tient, to the|end en\- dure;|
w: Com\- ing with re\- joic\- ing at the|ev\- en\- tide.|||||
w: And to speed the mes\- sage o'er the|o\- cean wave.|||||
 d>^cd>e d2 B>D | E2 c2 c4 | G>GG>A B>Bd>c | B2 A2 G4 |] %16
w: Just a lit\- tle long\- er the|cross to bear,|Then a long e\- ter\- ni\- ty the|crown to wear.|
w: ||||
w: ||||
V:2
 D>^CD>C D2 B,>=C | B,2 B,2 C2 C2 | F>FF>F F2 C2 | C2 B,2 B,4 | B,>B,D>D D2 B,>B, | C2 D2 D2 D2 | %6
 ^C>CE>E D>DD>E | D2 ^C2 D4 | G>GG>G G2 G2 | D>^CD>E D2 B,2 | B,>B,D>D D>DG>D | D2 G2 F4 | %12
 G>GG>G G2 G>B, | C2 E2 E4 | D>DD>D D>DG>A | G2 F2 D4 |] %16
V:3
 G,>G,G,>G, G,2 G,>G, | G,2 D,2 D,2 A,2 | A,>^G,A,>G, A,2 A,2 | G,2 G,2 G,4 | %4
 D,>D,G,>F, G,2 G,>G, | G,2 G,2 F,2 G,2 | G,>G,A,>A, A,>A,A,>B, | A,2 G,2 (F,2 C2) | %8
 B,>^A,B,>C B,2 D2 | G,>G,G,>G, G,2 D,2 | G,>G,G,>F, G,>G,D>G, | A,2 ^C2 D4 | B,>^A,B,>C G,2 D>G, | %13
 G,2 G,2 G,4 | G,>G,G,>F, G,>G,B,>E | D2 C2 B,4 |] %16
V:4
 G,,>G,,G,,>G,, G,,2 G,,>G,, | G,,2 G,,2 C,2 D,2 | D,>D,D,>D, D,2 D,2 | G,,2 G,,2 G,,4 | %4
 G,,>G,,B,,>D, G,2 G,>G, | C,2 B,,2 A,,2 G,,2 | A,,>A,,G,>G, F,>F,F,>G, | A,2 A,,2 D,4 | %8
 G,>G,G,>G, G,2 G,2 | G,,>G,,G,,>G,, G,,2 G,,2 | G,,>G,,B,,>F,, G,>G,G,>G, | F,2 E,2 D,4 | %12
 G,,>G,,G,,>G,, G,,2 G,,>G,, | C,2 C,2 C,4 | B,,>B,,B,,>D, G,>G,G,>C, | D,2 D,2 G,,4 |] %16

